X:926
T:The Caravan
S:Learned from Joanie Madden, 20/9/08
Z:Nigel Gatherer
M:6/8
L:1/8
K:G
B2d dBd | e2g gfe | d2B BAG | ABA GED :|
DBA A3  | DBA AGE | DBA A3  | GAG GED :|
<end>
<start>
